X:1
T:Sanctus (Holy, Holy, Holy Lord)
C:Isaiah 6:3; ancient liturgical setting
S:Traditional Lutheran liturgy; public domain
M:C
L:1/4
K:C
G G G A | G4 | G G G A | G4 |
c c c d | c B A G | A4 |
G G A G | F E D2 | C4 ||

## Musiquik
&0VVVW.v.VVVW.v.YYYZ.YXWV.w.VVWV.UTc.r)

#Lyrics
Holy, holy, holy Lord, God of power and might: heaven and earth are full of Your glory. Hosanna in the highest. Blessed is He who comes in the name of the Lord. Hosanna in the highest.

#Citations and References

Words: Isaiah 6:3; Matthew 21:9; ancient liturgical text; public domain.
Music: 'Sanctus' Traditional Lutheran chant; ancient, public domain.
Setting: Lutheran Service Book (LSB), Divine Service; traditional.
copyright: public domain.

https://openhymnal.org
